!!! OTL: Literature105
!!! Chapter: 5
!!! Section: III
!!! Page: 369
!!! Mode: 
!!! Encoder: DJB
**kern
*staff1
*I"Piano
=1-
*clefG2
*k[f#c#]
*D:
*M2/4
4r
8r
[8f#/
=2
8f#/]
4f#/
[8f#/
=3
8f#/]
8r
8r
[8e/
=4
8e/]
4e/
[8e/
=5
8e/]
8r
8r
[8b\
=6
8b\]
4b\
[8b\
=7
8b\]
8r
8r
16a/LL
16g/JJ
=8
8f#/
4f#/
[8f#/
=9
8f#/]
8r
8r
[8a/
=10
8a/]
4c#/
[8a/
=11
!!linebreak:original
8a/]
4d/
[8a/
=12
8a/]
4g/
8f#/
=13
4e/
8r
[8f#/
=14
8f#/]
4f#/
[8f#/
=15
8f#/]
8r
8r
[8e/
=16
8e/]
4e/
[8e/
=17
8e/]
8r
8r
[8b\
=18
8b\]
4b\
[8b\
=19
8b\]
8r
8r
16a/LL
16g/JJ
=20
8f#/
4f#/
[8f#/
=21
!!linebreak:original
8f#/]
8r
8r
[8a/
=22
8a/]
4c#/
[8a/
=23
8a/]
4d/
[8a/
=24
8a/]
4g/
8f#/
=25
4e/
8r
8cc#\
=26
8dd\L
8cc#\J
8dd\L
8cc#\J
=27
8dd\
8r
8r
8c#/
=28
8d/L
8c#/J
8d/L
8c#/J
=29
8d/
8r
4r
==
*-
